assets/asset.svg

<svg fill="none" height="18" viewBox="0 0 15 18" width="15" xmlns="http://www.w3.org/2000/svg"><path clip-rule="evenodd" d="m14.2931 3.35016c.4358.22534.7065.66986.7065 1.16046l.0004 8.05968c0 .2682-.0809.5244-.2333.7436l-.0029.0047-.0033.004-.0025.0036-.0022.0033-.0007.0007c-.118.1655-.278.3045-.4609.3995l-6.19928 3.2096c-.18397.0955-.3919.1459-.60055.1459h-.01705c-.02395-.0004-.04863-.0015-.07258-.0029-.00326-.0004-.00653-.0007-.00979-.0007l-.00386-.0004c-.02091-.0018-.05042-.0043-.08251-.0091l-.00559-.0008-.00457-.0006c-.04318-.0069-.08455-.0153-.12301-.0251-.09544-.0235-.19196-.0598-.28304-.1074l-6.187312-3.2063c-.182161-.0947-.341098-.2322-.459757-.3984-.002177-.0029-.003992-.0058-.005806-.0087l-.002177-.0029-.001815-.0033c-.1534941-.2188-.235503-.4772-.235503-.7468v-8.05573c0-.48988.269976-.93403.704695-1.15974l6.188765-3.209957c.37521-.1948613.82444-.1952242 1.2011-.000725zm-6.59842-2.430872c-.12592-.064953-.27542-.064953-.40025 0l-6.08244 3.155162 6.10131 3.14827c.12555.06459.27506.06459.40025-.00036l2.80245-1.45439.0033-.00181 3.2694-1.69643zm.22824 8.434932v6.69278l5.97068-3.0906c.061-.0315.1139-.0776.1535-.1328.0541-.0751.082-.1622.082-.2536v-7.69506l-6.01422 3.12033c-.18833.09761-.39589.1466-.60164.1466s-.41149-.04826-.5991-.14515l-6.042887-3.11851v7.69319c0 .0918.027941.1793.081646.2537.039916.0562.092531.1016.153131.1332l5.946 3.0815v-6.68558c0-.24058.19487-.43544.43545-.43544s.43544.19486.43544.43544zm-.42304-7.3592c.24049 0 .43544-.19496.43544-.43545s-.19495-.43544-.43544-.43544-.43545.19495-.43545.43544.19496.43545.43545.43545zm0 1.52353c.24049 0 .43544-.19496.43544-.43545s-.19495-.43545-.43544-.43545-.43545.19496-.43545.43545.19496.43545.43545.43545zm0 1.52457c.24049 0 .43544-.19496.43544-.43545s-.19495-.43545-.43544-.43545-.43545.19496-.43545.43545.19496.43545.43545.43545zm.43544 1.08808c0 .24049-.19495.43544-.43544.43544s-.43545-.19495-.43545-.43544.19496-.43545.43545-.43545.43544.19496.43544.43545zm-4.9502 5.6087c-.11032-.2138-.02649-.4765.18724-.5868.21373-.1099.47645-.0261.58676.1876s.02649.4765-.18724.5864c-.06387.033-.13208.0486-.19958.0486-.15749 0-.30989-.086-.38718-.2358zm-1.22784.1434c-.21373.1103-.29755.373-.18724.5868.07729.1498.22934.2358.38718.2358.06714 0 .13536-.0156.19922-.0486.21373-.1103.29755-.373.18761-.5864-.11032-.2141-.37304-.2979-.58677-.1876zm2.64284-.8735c-.11032-.2137-.02613-.4761.1876-.5864s.47645-.0265.5864.1872c.11031.2138.02649.4765-.18724.5868-.06387.033-.13209.0486-.19922.0486-.15785 0-.31025-.0864-.38754-.2362zm2.20458-1.09599c-.01089-.02649-.02431-.05153-.03992-.07512-.01596-.02395-.03411-.04645-.05443-.0664-.01996-.01996-.04209-.03811-.06604-.05407-.02359-.01561-.04899-.02903-.07512-.03992-.02612-.01088-.0537-.01923-.08164-.02504-.05588-.01125-.11394-.01125-.16982 0-.02795.00581-.05552.01416-.08165.02504-.02613.01089-.05153.02431-.07511.03992-.02395.01596-.04609.03411-.06641.05407-.01996.01995-.0381.04245-.05407.0664-.0156.02359-.02903.04863-.03991.07512-.01089.02612-.01924.0537-.02468.08128-.0058.02831-.00871.05701-.00871.08531s.00291.0569.00871.0849c.00544.0279.01379.0551.02468.0816.01088.0261.02431.0515.03991.0751.01597.024.03411.0461.05407.0661.02032.0203.04246.0384.06641.054.02358.016.04898.0294.07511.0403s.0537.0193.08165.0247c.02794.0058.0566.0087.08491.0087.0283 0 .05697-.0029.08491-.0087.02794-.0054.05552-.0138.08164-.0247.02613-.0109.05153-.0243.07512-.0403.02395-.0156.04608-.0337.06604-.054.02032-.02.03847-.0421.05443-.0661.01561-.0236.02903-.049.03992-.0751.01088-.0265.01923-.0537.02504-.0816.00544-.028.00834-.0566.00834-.0849s-.0029-.057-.00834-.08531c-.00581-.02758-.01416-.05516-.02504-.08128zm2.55456-.08763c.01561.02358.02903.04862.03992.07511.01088.02613.01923.05371.02504.08128.00544.02833.00834.05693.00834.08523 0 .1147-.04644.2268-.12736.3078-.02032.0203-.04246.0384-.06641.0544-.02359.0156-.04899.029-.07511.0399-.02613.0109-.05371.0192-.08165.0247-.02794.0058-.05661.0087-.08491.0087-.02831 0-.05697-.0029-.08528-.0087-.02757-.0055-.05515-.0138-.08128-.0247s-.05153-.0243-.07511-.0399c-.02395-.016-.04609-.0341-.06641-.0544-.01996-.02-.0381-.0421-.05407-.0661-.0156-.0236-.02903-.049-.03991-.0751-.01089-.0265-.01923-.0537-.02504-.0816-.00544-.028-.00835-.0566-.00835-.085 0-.0283.00291-.0569.00835-.08523.00581-.02757.01415-.05515.02504-.08128.01088-.02649.02431-.05153.03991-.07511.01597-.02395.03411-.04609.05407-.06641.02032-.01996.04246-.0381.06641-.05407.02358-.0156.04898-.02903.07511-.03991.02613-.01089.05371-.01923.08128-.02504.05625-.01125.11431-.01125.17019 0 .02794.00581.05552.01415.08165.02504.02612.01088.05152.02431.07511.03991.02395.01597.04609.03411.06641.05407.01995.02032.0381.04246.05406.06641zm2.66874 1.32022c-.2133-.1107-.4764-.0273-.5867.1865-.1107.2133-.0273.4761.1865.5867.0638.0331.1324.0487.1999.0487.1575 0 .3096-.0857.3868-.2352.1107-.2137.0273-.4764-.1865-.5867zm.8283.9196c.1106-.2138.3734-.2972.5867-.1866.2138.1104.2972.3734.1865.5868-.0772.1495-.2293.2355-.3868.2355-.0675 0-.136-.016-.1999-.049-.2134-.1107-.2972-.3734-.1865-.5867zm-2.2439-1.653c-.2137-.1103-.47641-.0268-.58672.1866-.11068.2137-.02722.4764.18612.5871.0643.033.1325.0486.2.0486.1575 0 .3099-.0856.3872-.2351.1106-.2138.0268-.4765-.1866-.5872z" fill="#fff" fill-rule="evenodd"/></svg>

<svg width="15" height="18" viewBox="0 0 15 18" fill="none" xmlns="http://www.w3.org/2000/svg">
<path fill-rule="evenodd" clip-rule="evenodd" d="M14.2931 3.35016C14.7289 3.5755 14.9996 4.02002 14.9996 4.51062L15 12.5703C15 12.8385 14.9191 13.0947 14.7667 13.3139L14.7638 13.3186L14.7605 13.3226L14.758 13.3262L14.7558 13.3295L14.7551 13.3302C14.6371 13.4957 14.4771 13.6347 14.2942 13.7297L8.09492 16.9393C7.91095 17.0348 7.70302 17.0852 7.49437 17.0852H7.47732C7.45337 17.0848 7.42869 17.0837 7.40474 17.0823C7.40148 17.0819 7.39821 17.0816 7.39495 17.0816L7.39109 17.0812C7.37018 17.0794 7.34067 17.0769 7.30858 17.0721L7.30299 17.0713L7.29842 17.0707C7.25524 17.0638 7.21387 17.0554 7.17541 17.0456C7.07997 17.0221 6.98345 16.9858 6.89237 16.9382L0.705058 13.7319C0.522897 13.6372 0.36396 13.4997 0.245301 13.3335C0.243124 13.3306 0.241309 13.3277 0.239495 13.3248L0.237318 13.3219L0.235503 13.3186C0.0820089 13.0998 0 12.8414 0 12.5718V4.51607C0 4.02619 0.269976 3.58204 0.704695 3.35633L6.89346 0.146373C7.26867 -0.0484883 7.7179 -0.0488512 8.09456 0.145648L14.2931 3.35016ZM7.69468 0.919288C7.56876 0.854335 7.41926 0.854335 7.29443 0.919288L1.21199 4.07445L7.3133 7.22272C7.43885 7.28731 7.58836 7.28731 7.71355 7.22236L10.516 5.76797L10.5193 5.76616L13.7887 4.06973L7.69468 0.919288ZM7.92292 9.35422V16.047L13.8936 12.9564C13.9546 12.9249 14.0075 12.8788 14.0471 12.8236C14.1012 12.7485 14.1291 12.6614 14.1291 12.57V4.87494L8.11488 7.99527C7.92655 8.09288 7.71899 8.14187 7.51324 8.14187C7.30749 8.14187 7.10175 8.09361 6.91414 7.99672L0.871253 4.87821V12.5714C0.871253 12.6632 0.899194 12.7507 0.952899 12.8251C0.992815 12.8813 1.04543 12.9267 1.10603 12.9583L7.05203 16.0398V9.35422C7.05203 9.11364 7.2469 8.91878 7.48748 8.91878C7.72806 8.91878 7.92292 9.11364 7.92292 9.35422ZM7.49988 1.99502C7.74037 1.99502 7.93532 1.80006 7.93532 1.55957C7.93532 1.31908 7.74037 1.12413 7.49988 1.12413C7.25939 1.12413 7.06443 1.31908 7.06443 1.55957C7.06443 1.80006 7.25939 1.99502 7.49988 1.99502ZM7.49988 3.51855C7.74037 3.51855 7.93532 3.32359 7.93532 3.0831C7.93532 2.84261 7.74037 2.64765 7.49988 2.64765C7.25939 2.64765 7.06443 2.84261 7.06443 3.0831C7.06443 3.32359 7.25939 3.51855 7.49988 3.51855ZM7.49988 5.04312C7.74037 5.04312 7.93532 4.84816 7.93532 4.60767C7.93532 4.36718 7.74037 4.17222 7.49988 4.17222C7.25939 4.17222 7.06443 4.36718 7.06443 4.60767C7.06443 4.84816 7.25939 5.04312 7.49988 5.04312ZM7.93532 6.1312C7.93532 6.37169 7.74037 6.56664 7.49988 6.56664C7.25939 6.56664 7.06443 6.37169 7.06443 6.1312C7.06443 5.89071 7.25939 5.69575 7.49988 5.69575C7.74037 5.69575 7.93532 5.89071 7.93532 6.1312ZM2.98512 11.7399C2.8748 11.5261 2.95863 11.2634 3.17236 11.1531C3.38609 11.0432 3.64881 11.127 3.75912 11.3407C3.86943 11.5544 3.78561 11.8172 3.57188 11.9271C3.50801 11.9601 3.4398 11.9757 3.3723 11.9757C3.21481 11.9757 3.06241 11.8897 2.98512 11.7399ZM1.75728 11.8833C1.54355 11.9936 1.45973 12.2563 1.57004 12.4701C1.64733 12.6199 1.79938 12.7059 1.95722 12.7059C2.02436 12.7059 2.09258 12.6903 2.15644 12.6573C2.37017 12.547 2.45399 12.2843 2.34405 12.0709C2.23373 11.8568 1.97101 11.773 1.75728 11.8833ZM4.40012 11.0098C4.2898 10.7961 4.37399 10.5337 4.58772 10.4234C4.80145 10.3131 5.06417 10.3969 5.17412 10.6106C5.28443 10.8244 5.20061 11.0871 4.98688 11.1974C4.92301 11.2304 4.85479 11.246 4.78766 11.246C4.62981 11.246 4.47741 11.1596 4.40012 11.0098ZM6.6047 9.91381C6.59381 9.88732 6.58039 9.86228 6.56478 9.83869C6.54882 9.81474 6.53067 9.79224 6.51035 9.77229C6.49039 9.75233 6.46826 9.73418 6.44431 9.71822C6.42072 9.70261 6.39532 9.68919 6.36919 9.6783C6.34307 9.66742 6.31549 9.65907 6.28755 9.65326C6.23167 9.64201 6.17361 9.64201 6.11773 9.65326C6.08978 9.65907 6.06221 9.66742 6.03608 9.6783C6.00995 9.68919 5.98455 9.70261 5.96097 9.71822C5.93702 9.73418 5.91488 9.75233 5.89456 9.77229C5.8746 9.79224 5.85646 9.81474 5.84049 9.83869C5.82489 9.86228 5.81146 9.88732 5.80058 9.91381C5.78969 9.93993 5.78134 9.96751 5.7759 9.99509C5.7701 10.0234 5.76719 10.0521 5.76719 10.0804C5.76719 10.1087 5.7701 10.1373 5.7759 10.1653C5.78134 10.1932 5.78969 10.2204 5.80058 10.2469C5.81146 10.273 5.82489 10.2984 5.84049 10.322C5.85646 10.346 5.8746 10.3681 5.89456 10.3881C5.91488 10.4084 5.93702 10.4265 5.96097 10.4421C5.98455 10.4581 6.00995 10.4715 6.03608 10.4824C6.06221 10.4933 6.08978 10.5017 6.11773 10.5071C6.14567 10.5129 6.17433 10.5158 6.20264 10.5158C6.23094 10.5158 6.25961 10.5129 6.28755 10.5071C6.31549 10.5017 6.34307 10.4933 6.36919 10.4824C6.39532 10.4715 6.42072 10.4581 6.44431 10.4421C6.46826 10.4265 6.49039 10.4084 6.51035 10.3881C6.53067 10.3681 6.54882 10.346 6.56478 10.322C6.58039 10.2984 6.59381 10.273 6.6047 10.2469C6.61558 10.2204 6.62393 10.1932 6.62974 10.1653C6.63518 10.1373 6.63808 10.1087 6.63808 10.0804C6.63808 10.0521 6.63518 10.0234 6.62974 9.99509C6.62393 9.96751 6.61558 9.93993 6.6047 9.91381ZM9.15926 9.82618C9.17487 9.84976 9.18829 9.8748 9.19918 9.90129C9.21006 9.92742 9.21841 9.955 9.22422 9.98257C9.22966 10.0109 9.23256 10.0395 9.23256 10.0678C9.23256 10.1825 9.18612 10.2946 9.1052 10.3756C9.08488 10.3959 9.06274 10.414 9.03879 10.43C9.0152 10.4456 8.9898 10.459 8.96368 10.4699C8.93755 10.4808 8.90997 10.4891 8.88203 10.4946C8.85409 10.5004 8.82542 10.5033 8.79712 10.5033C8.76881 10.5033 8.74015 10.5004 8.71184 10.4946C8.68427 10.4891 8.65669 10.4808 8.63056 10.4699C8.60443 10.459 8.57903 10.4456 8.55545 10.43C8.5315 10.414 8.50936 10.3959 8.48904 10.3756C8.46908 10.3556 8.45094 10.3335 8.43497 10.3095C8.41937 10.2859 8.40594 10.2605 8.39506 10.2344C8.38417 10.2079 8.37583 10.1807 8.37002 10.1528C8.36458 10.1248 8.36167 10.0962 8.36167 10.0678C8.36167 10.0395 8.36458 10.0109 8.37002 9.98257C8.37583 9.955 8.38417 9.92742 8.39506 9.90129C8.40594 9.8748 8.41937 9.84976 8.43497 9.82618C8.45094 9.80223 8.46908 9.78009 8.48904 9.75977C8.50936 9.73981 8.5315 9.72167 8.55545 9.7057C8.57903 9.6901 8.60443 9.67667 8.63056 9.66579C8.65669 9.6549 8.68427 9.64656 8.71184 9.64075C8.76809 9.6295 8.82615 9.6295 8.88203 9.64075C8.90997 9.64656 8.93755 9.6549 8.96368 9.66579C8.9898 9.67667 9.0152 9.6901 9.03879 9.7057C9.06274 9.72167 9.08488 9.73981 9.1052 9.75977C9.12515 9.78009 9.1433 9.80223 9.15926 9.82618ZM11.828 11.1464C11.6147 11.0357 11.3516 11.1191 11.2413 11.3329C11.1306 11.5462 11.214 11.809 11.4278 11.9196C11.4916 11.9527 11.5602 11.9683 11.6277 11.9683C11.7852 11.9683 11.9373 11.8826 12.0145 11.7331C12.1252 11.5194 12.0418 11.2567 11.828 11.1464ZM12.6563 12.066C12.7669 11.8522 13.0297 11.7688 13.243 11.8794C13.4568 11.9898 13.5402 12.2528 13.4295 12.4662C13.3523 12.6157 13.2002 12.7017 13.0427 12.7017C12.9752 12.7017 12.9067 12.6857 12.8428 12.6527C12.6294 12.542 12.5456 12.2793 12.6563 12.066ZM10.4124 10.413C10.1987 10.3027 9.93599 10.3862 9.82568 10.5996C9.715 10.8133 9.79846 11.076 10.0118 11.1867C10.0761 11.2197 10.1443 11.2353 10.2118 11.2353C10.3693 11.2353 10.5217 11.1497 10.599 11.0002C10.7096 10.7864 10.6258 10.5237 10.4124 10.413Z" fill="white"/>
</svg>
